teeny/solid/share.svg

<svg width="15" height="15" viewBox="0 0 15 15" fill="none" xmlns="http://www.w3.org/2000/svg">
<path d="M10 2.4987C10 1.11897 11.1202 0 12.5 0C13.8798 0 15 1.11897 15 2.4987C15 3.87843 13.8798 4.99739 12.5 4.99739C12.119 4.99739 11.7578 4.91209 11.4345 4.75954L9.13117 7.51937L11.1694 10.3767C11.5549 10.1339 12.0111 9.99347 12.5 9.99347C13.8798 9.99347 15 11.1124 15 12.4922C15 13.8719 13.8798 14.9909 12.5 14.9909C11.1202 14.9909 10 13.8719 10 12.4922C10 11.9665 10.1626 11.4788 10.4401 11.0763L8.24567 8H4.94895C4.71527 9.13796 3.70698 9.99413 2.5 9.99413C1.12017 9.99413 0 8.87516 0 7.49543C0 6.1157 1.12017 4.99673 2.5 4.99673C3.71021 4.99673 4.72066 5.85749 4.95081 7L8.26212 7L10.6327 4.15968C10.2392 3.71816 10 3.13627 10 2.4987Z" fill="black"/>
</svg>

<svg viewBox="0 0 15 15" xmlns="http://www.w3.org/2000/svg"><path d="M10 2.49c0-1.38 1.12-2.5 2.5-2.5 1.37 0 2.5 1.11 2.5 2.49 0 1.37-1.13 2.49-2.5 2.49 -.39 0-.75-.09-1.07-.24L9.12 7.48l2.03 2.85c.38-.25.84-.39 1.33-.39 1.37 0 2.5 1.11 2.5 2.49 0 1.37-1.13 2.49-2.5 2.49 -1.38 0-2.5-1.12-2.5-2.5 0-.53.16-1.02.44-1.42l-2.2-3.08h-3.3c-.24 1.13-1.25 1.99-2.45 1.99 -1.38 0-2.5-1.12-2.5-2.5s1.12-2.5 2.5-2.5c1.21 0 2.22.86 2.45 2h3.31l2.37-2.85c-.4-.45-.64-1.03-.64-1.67Z"/></svg>
